static/assets/images/exchanges/kucoin.svg

<svg width="235" height="256" viewBox="0 0 235 256" fill="none" xmlns="http://www.w3.org/2000/svg">
<path fill-rule="evenodd" clip-rule="evenodd" d="M74.1978 128L150.106 203.739L197.95 155.895C206.403 147.442 220.097 147.442 228.55 155.895C237.003 164.348 237.003 178.042 228.55 186.495L165.321 249.723C156.868 258.177 143.005 258.007 134.721 249.723L43.5978 158.6V212.699C43.5978 224.533 33.7923 234.339 21.9581 234.339C9.95479 234.339 0.318359 224.703 0.318359 212.699V43.3007C0.318359 31.2975 9.95479 21.661 21.9581 21.661C33.9614 21.661 43.5978 31.2975 43.5978 43.3007V97.4001L134.721 6.27653C143.005 -2.00743 156.868 -2.17649 165.321 6.27653L228.55 69.3361C237.003 77.7891 237.003 91.483 228.55 99.936C220.097 108.389 206.403 108.389 197.95 99.936L150.106 52.0919L74.1978 128ZM149.937 106.36C161.94 106.36 171.577 115.997 171.577 128C171.577 140.003 161.94 149.64 149.937 149.64C137.934 149.64 128.297 140.003 128.297 128C128.297 116.166 138.103 106.36 149.937 106.36Z" fill="#34CEA8"/>
</svg>

<svg xmlns="http://www.w3.org/2000/svg" fill="none" viewBox="0 0 235 256"><path fill="#34CEA8" fill-rule="evenodd" d="m74.198 128 75.908 75.739 47.844-47.844c8.453-8.453 22.147-8.453 30.6 0s8.453 22.147 0 30.6l-63.229 63.228c-8.453 8.454-22.316 8.284-30.6 0L43.598 158.6v54.099c0 11.834-9.806 21.64-21.64 21.64a21.573 21.573 0 0 1-21.64-21.64V43.301a21.574 21.574 0 0 1 21.64-21.64 21.574 21.574 0 0 1 21.64 21.64v54.1L134.72 6.276c8.284-8.284 22.147-8.453 30.6 0l63.229 63.06c8.453 8.452 8.453 22.146 0 30.599s-22.147 8.453-30.6 0l-47.844-47.844zm75.739-21.64a21.574 21.574 0 0 1 21.64 21.64 21.574 21.574 0 0 1-21.64 21.64 21.574 21.574 0 0 1-21.64-21.64c0-11.834 9.806-21.64 21.64-21.64" clip-rule="evenodd"/></svg>
